X:1
T:Not Half Has Ever Been Told
T:Not Half Has Ever Been Told
T:Otis Fletcher Presbrey
T:Jonathan Bush Atchinson, 1875
T:Public Domain Courtesy of the Cyber Hymnal™
T:Public Domain Courtesy of the Cyber Hymnal™
T:Public Domain Courtesy of the Cyber Hymnal™
C:Otis Fletcher Presbrey
Z:Public Domain
Z:Courtesy of the Cyber Hymnal™
%%score ( 1 2 ) 3 4
L:1/8
Q:1/4=95
M:6/8
K:C
V:1 treble 
V:2 treble 
V:3 treble 
V:4 bass 
V:1
 E/F/ | G2 ^F/G/ ABd | c3 G2 c/c/ | cBc dcA | G3- G2 E/F/ | G2 ^F/G/ ABd | c3 G z c/c/ | %7
w: 1.~I have|read of a beau- ti- ful|ci- ty, Far a-|way in the king- dom of|God; * I have|read how its walls are of|jas- per, How its|
w: 2.~I have|read of bright man- sions in|Hea- ven, Which the|Sav- ior has gone to pre-|pare; * And the|saints who on earth have been|faith- ful, Rest for-|
w: 3.~I have|read of white robes for the|right- eous, Of bright|crowns which the glor- i- fied|wear, * When our|Fa- ther shall bid them, “Come,|en- ter, And My|
w: 4.~I have|read of a Christ so for-|giv- ing, That vile|sin- ners may ask and re-|ceive * Peace and|par- don for ev- ery trans-|gress- ion, If when|
 B2 A/B/ dcA | G3- G2 G/G/ | A2 F/F/ FGA | G c3 z c/c/ | cBc edc | (B3 A2) G/G/ | G2 ^F/G/ cBc | %14
w: streets are all gold- en and|broad; * In the|midst of the street is life’s|ri- ver, Clear as|crys- tal and pure to be-|hold; * But not|half of that ci- ty’s bright|
w: ev- er with Christ o- ver|there; * There no|sin ev- er en- ters, nor|sor- row, The in-|hab- i- tants ne- ver grow|old; * But not|half of the won- der- ful|
w: glo- ry e- ter- nal- ly|share”; * How the|right- eous are ev- er- more|bless- èd As they|walk through the streets of pure|gold; * But not|half of the won- der- ful|
w: ask- ing they on- ly be-|lieve. * I have|read how He’ll guide and pro-|tect us, If for|safe- ty we en- ter His|fold; * But not|half of His good- ness and|
 d3 A2 A | GGG G<FD | C3- C2 ||"^Refrain" [EG] | [EG]2 [EG] [EG][EG][EG] | [FA]3- [FA]2 [FA] | %20
w: glo- ry To|mo- rtals has ev- er been|told. *||||
w: sto- ry To|mor- tals has ev- er been|told. *||||
w: sto- ry To|mor- tals has ev- er been|told. *|Not|half has ev- er been|told; * Not|
w: mer- cy To|mor- tals has ev- er been|told. *||||
 [^FA]2 [FA] [FA]<[Fd][Ac] | [GB]3- [GB]2 G | [EG][FA][DB] [Ec][Fd][Ge] | [Af]3 [FA]2 [FA] | %24
w: ||||
w: ||||
w: half has ev- er been|told; * Not|half of that ci- ty’s bright|glo- ry To|
w: ||||
 [EG]<[EG][EG] G[FA][FB] | [Ec]3- [Ec]2 |] %26
w: ||
w: ||
w: mor- tals has ev- er been|told. *|
w: ||
V:2
 x | x6 | x6 | x6 | x6 | x6 | x6 | x6 | x6 | x6 | x6 | x6 | x6 | x6 | x6 | x6 | x5 || x | x6 | x6 | %20
 x6 | x5 F | x6 | x6 | x3 F x2 | x5 |] %26
V:3
 z | [G,CE]3 [G,B,F]3 | [G,CE]6 | [A,CF]6 | [G,CE]6 | [G,CE]3 [G,B,F]3 | [G,CE]6 | %7
 [B,DG]3 [CD^F]3 | [B,DG]6 | [A,CF]6 | [G,CE]6 | [A,CE]3 [A,C^F]3 | [G,B,G]3 [G,B,F]3 | [G,CE]6 | %14
 [A,DF]6 | [G,CE]3 [G,B,F]3 | [G,CE]3- [G,CE]2 || x | x6 | x6 | x6 | x6 | x6 | x6 | x6 | x5 |] %26
V:4
 z | C,3 G,,3 | [C,,C,]6 | F,,3 A,,3 | C,6 | C,3 G,,3 | [C,,C,]6 | [D,,D,]3 [D,,D,]3 | %8
 G,,D,B,, G,,3 | F,6 | C,6 | A,,3 D,3 | G,,6 | C,6 | F,,6 | G,,3 G,,3 | (C,G,,E,, C,,2) || [C,C] | %18
 [C,C]2 [C,C] [C,C][C,C][C,C] | ([F,C]2 [F,C] [F,C]2) [F,C] | [D,D]2 [D,D] [D,D]<[D,A,][^F,D] | %21
 ([G,D]2 [G,D] [G,D]2) [G,B,] | [C,C][C,C][C,C] [C,C][C,C][C,C] | [F,C]3 [F,C]2 [F,C] | %24
 [G,C]<[G,C][G,C] [G,B,][G,C][G,,G,D] | [C,G,C]3- [C,G,C]2 |] %26

